.local/share/icons/Gruvbox-Plus-Dark/panel/16/odrive-tray-sync.svg

<svg xmlns="http://www.w3.org/2000/svg" width="16" height="16" version="1.1">
 <defs>
  <style id="current-color-scheme" type="text/css">
   .ColorScheme-Text { color:#ebdbb2; } .ColorScheme-Highlight { color:#458588; }
  </style>
 </defs>
 <path style="fill:currentColor" class="ColorScheme-Text" d="M 5.3339844 1 L 9.6777344 8.9960938 A 4.5 4.5 0 0 1 12.5 8 A 4.5 4.5 0 0 1 15.496094 9.1484375 L 10.666016 1 L 5.3339844 1 z M 4.8476562 1.9492188 L 0 10.625 L 2.6660156 15 L 7.4863281 6.8046875 L 4.8476562 1.9492188 z M 12.5 9 C 10.567037 9 9 10.567039 9 12.5 C 9 14.432964 10.567037 16 12.5 16 C 14.432963 16 16 14.432964 16 12.5 C 16 10.567039 14.432963 9 12.5 9 z M 12.5 10 A 2.5000001 2.5000001 0 0 1 15 12.5 L 14.166016 12.5 A 1.6666668 1.6666668 0 0 0 12.5 10.833984 L 12.5 10 z M 8.2617188 11.005859 L 6 11.007812 L 3.5546875 15 L 8.7617188 15 A 4.5 4.5 0 0 1 8 12.5 A 4.5 4.5 0 0 1 8.2617188 11.005859 z M 10 12.5 L 10.833984 12.5 A 1.6666668 1.6666668 0 0 0 12.5 14.166016 L 12.5 15 A 2.5000001 2.5000001 0 0 1 10 12.5 z"/>
</svg>

<svg width="16" height="16" version="1.1" xmlns="http://www.w3.org/2000/svg">
  <defs>
    <style id="current-color-scheme" type="text/css">.ColorScheme-Text { color:#ebdbb2; } .ColorScheme-Highlight { color:#458588; } .ColorScheme-NeutralText { color:#fe8019; } .ColorScheme-PositiveText { color:#689d6a; } .ColorScheme-NegativeText { color:#fb4934; }</style>
  </defs>
  <path class="ColorScheme-Text" d="m5.334 1 4.344 7.996c0.7996-0.6443 1.795-0.9958 2.822-0.9961 1.106 0.00166 2.172 0.4105 2.996 1.148l-4.83-8.148zm-0.4863 0.9492-4.848 8.676 2.666 4.375 4.82-8.195zm7.652 7.051c-1.933 0-3.5 1.567-3.5 3.5 0 1.933 1.567 3.5 3.5 3.5s3.5-1.567 3.5-3.5c0-1.933-1.567-3.5-3.5-3.5zm0 1c1.381 0 2.5 1.119 2.5 2.5h-0.834c-3.59e-4 -0.92-0.746-1.666-1.666-1.666zm-4.238 1.006-2.262 0.00195-2.445 3.992h5.207c-0.4956-0.7396-0.7607-1.61-0.7617-2.5 0.0021-0.5093 0.09056-1.014 0.2617-1.494zm1.738 1.494h0.834c3.59e-4 0.92 0.746 1.666 1.666 1.666v0.834c-1.381 0-2.5-1.119-2.5-2.5z" fill="currentColor"/>
</svg>
